X:0
T:Hypnogogic
M:C|
C:© Paul Gitlitz 2009
K:Em
"Em"B2G2G2A2|B2G2G2B2|"D"A2F2F2G2|"Bm"BdcB AGFA|!
"Em"B2G2G2A2|B2G2G2B2|"D"A2F2F2d2|f2d2d2g2|!
"C"e2c2c2d2|e2c2e2g2|"D"f2d2d2e2|f2d2f2a2|!
"Bm"bagf "Em"e2d2|"Am"cBAG "D"F2D2|"C"C2E2G2E2|"D"F2A2A2c2|!
"G"B2G2G2A2|B2G2B2d2|"A"^c2A2A2B2|^c2A2c2e2|!
"G"B2G2G2A2|B2G2B2d2|"C"e2c2c2d2|e2f2g2a2|!
"G"bagf "Em"e2d2|"D"ABcB A2F2|"Em"G2E2C2E2|"D"D2E2c2A2:|"Em"B8|]
